**kern	**kern	**dynam
*part1	*part1	*part1
*staff2	*staff1	*
*I"Piano	*	*
*clefF4	*clefG2	*
*k[b-]	*k[b-]	*
=1	=1	=1
8FFL	8fL 8a 8cc	.
(8F	(8f 8a	.
8F 8G	8e 8b-	.
8FJ) 8A	8e-XJ) 8f 8cc	.
=	=	=
8BB-L 8F 8B-	8dL 8f 8dd	.
8B- 8d	16b-L	.
.	16ccJJ	.
8G 8d	8b-L 8dd	.
8GJ 8c	8b-J 8een	.
=	=	=
8FL 8c	8b-L 8ff	.
8F 8c	8b- 8ff	.
8F 8c	8a 8ff	.
8DJ	8b-J 8ff	.
=	=	=
8CL	8aL 8ff	.
16DL	8b- 8ff	.
16E-XJJ	.	.
8FL	8b- 8cc 8ff	.
8FFJ 8F	8aJ 8cc 8ff	.
=	=	=
8BB-L 8F	8b-L 8dd 8ff	.
8D 8B- 8d	8b- 8dd	.
8F 8B- 8d	8b- 8dd	.
8B-J 8d	8b-J 8dd	.
=	=	=
!	!	!LO:DY:a
8GL 8B- 8d	8.e^L 8.ee	fp
8G 8B- 8d	.	.
.	16fK 16ff	.
8G 8B- 8d	8eJ 8ee	.
8GJ 8B- 8d	8r	.
=	=	=
8FL 8A 8d	8.a^L 8.aa	fp
8F 8A 8d	.	.
.	16b-K 16bb-	.
8F 8A 8d	8aJ 8aa	.
8FJ 8A 8d	8r	.
=	=	=
*-	*-	*-
!!!system-decoration: {(s1,s2)}
